build/flags/Cuba.svg

<svg xmlns="http://www.w3.org/2000/svg" fill="none" viewBox="0 0 28 28" focusable="false"><defs><filter id="Cuba_svg__a"><feColorMatrix values="0 0 0 0 1 0 0 0 0 1 0 0 0 0 1 0 0 0 1 0"/></filter></defs><mask id="Cuba_svg__b" width="28" height="20" x="0" y="4" maskUnits="userSpaceOnUse"><g filter="url(#Cuba_svg__a)"><rect width="28" height="20" y="4" fill="#FFF" rx="3"/><rect width="27.5" height="19.5" x=".25" y="4.25" stroke="#F5F5F5" stroke-width=".5" rx="2.75"/></g></mask><path fill="none" d="M0 0H28V28H0z"/><rect width="28" height="20" y="4" fill="#FFF" rx="3"/><rect width="27.5" height="19.5" x=".25" y="4.25" stroke="#D6D8DD" stroke-width=".5" rx="2.75"/><g mask="url(#Cuba_svg__b)"><path fill="#0B389F" fill-rule="evenodd" d="M0 8L28 8L28 4L0 4L0 8Z"/><path d="M28 8L28 4L0 4L0 8L28 8Z"/><path fill="#0B389F" fill-rule="evenodd" d="M0 16L28 16L28 12L0 12L0 16Z"/><path d="M28 16L28 12L0 12L0 16L28 16Z"/><path fill="#0B389F" fill-rule="evenodd" d="M0 24L28 24L28 20L0 20L0 24Z"/><path d="M28 24L28 20L0 20L0 24L28 24Z"/><path fill="#E12A43" fill-rule="evenodd" d="M0 4L13.3333 14L0 24L0 4Z"/><path d="M13.3333 14L0 24L0 4L13.3333 14Z"/><path fill="#FFF" fill-rule="evenodd" d="M4.66667 15.0227L3.09924 16.1574L3.69403 14.316L2.13052 13.1759L4.06555 13.1726L4.66667 11.3333L5.26779 13.1726L7.20282 13.1759L5.6393 14.316L6.23409 16.1574L4.66667 15.0227Z"/><path d="M3.09924 16.1574L3.69403 14.316L2.13052 13.1759L4.06555 13.1726L4.66667 11.3333L5.26779 13.1726L7.20282 13.1759L5.6393 14.316L6.23409 16.1574L4.66667 15.0227L3.09924 16.1574Z"/></g></svg>

<svg xmlns="http://www.w3.org/2000/svg" fill="none" viewBox="0 0 28 28" focusable="false"><path fill="none" d="M0 0h28v28H0z"/><rect width="28" height="20" y="4" fill="#FFF" rx="3"/><rect width="27.5" height="19.5" x=".25" y="4.25" stroke="#D6D8DD" stroke-width=".5" rx="3"/><mask id="Cuba_svg__a" width="28" height="20" x="0" y="4" mask-type="alpha" maskUnits="userSpaceOnUse"><rect width="28" height="20" y="4" fill="#FFF" rx="3"/><rect width="27.5" height="19.5" x=".25" y="4.25" stroke="#F5F5F5" stroke-width=".5" rx="3"/></mask><g mask="url(#Cuba_svg__a)"><path fill="#0B389F" fill-rule="evenodd" d="M0 8h28V4H0z"/><path d="M28 8V4H0v4z"/></g><g mask="url(#Cuba_svg__a)"><path fill="#0B389F" fill-rule="evenodd" d="M0 16h28v-4H0z"/><path d="M28 16v-4H0v4z"/></g><g mask="url(#Cuba_svg__a)"><path fill="#0B389F" fill-rule="evenodd" d="M0 24h28v-4H0z"/><path d="M28 24v-4H0v4z"/></g><g mask="url(#Cuba_svg__a)"><path fill="#E12A43" fill-rule="evenodd" d="m0 4 13.33 10L0 24z"/><path d="M13.33 14 0 24V4z"/></g><g mask="url(#Cuba_svg__a)"><path fill="#FFF" fill-rule="evenodd" d="m4.66 15.02-1.57 1.13.6-1.84-1.56-1.14h1.93l.6-1.84.6 1.84H7.2l-1.57 1.14.6 1.84z"/><path d="m3.09 16.15.6-1.84-1.56-1.14h1.93l.6-1.84.6 1.84H7.2l-1.57 1.14.6 1.84-1.57-1.13z"/></g></svg>
